icons/communication/comment-arrow-left-24.svg

<svg width="24" height="24" viewBox="0 0 24 24" fill="none" xmlns="http://www.w3.org/2000/svg">
<path d="M10.1427 10.7947L12.2776 13.1389C12.4203 13.2824 12.5035 13.4795 12.5092 13.6875C12.515 13.8955 12.4428 14.0975 12.3083 14.2495C12.1738 14.4015 11.9879 14.4913 11.7911 14.4994C11.5943 14.5075 11.4024 14.4331 11.2572 14.2926L7.73712 10.582C7.66229 10.5082 7.60263 10.4188 7.56184 10.3196C7.52105 10.2204 7.5 10.1134 7.5 10.0052C7.5 9.897 7.52105 9.78997 7.56184 9.69074C7.60263 9.59151 7.66229 9.5022 7.73712 9.42834L11.2572 5.71781C11.3287 5.64587 11.413 5.58961 11.5052 5.55228C11.5974 5.51495 11.6957 5.4973 11.7944 5.50034C11.8932 5.50337 11.9903 5.52705 12.0803 5.56999C12.1703 5.61293 12.2514 5.67428 12.3188 5.7505C12.3862 5.82672 12.4387 5.9163 12.4731 6.01407C12.5076 6.11183 12.5233 6.21583 12.5195 6.32007C12.5157 6.4243 12.4923 6.5267 12.4508 6.62135C12.4093 6.716 12.3504 6.80102 12.2776 6.8715L10.1427 9.21571H15.7526C15.9508 9.21571 16.1409 9.29889 16.2811 9.44694C16.4213 9.595 16.5 9.7958 16.5 10.0052C16.5 10.2146 16.4213 10.4154 16.2811 10.5634C16.1409 10.7115 15.9508 10.7947 15.7526 10.7947H10.1427Z" fill="black"/>
<path fill-rule="evenodd" clip-rule="evenodd" d="M2.75 2C1.7835 2 1 2.7835 1 3.75V16.25C1 17.2165 1.7835 18 2.75 18H5V20.7183C5 21.8076 6.29633 22.3757 7.09724 21.6374L10.9712 18.0662C11.0173 18.0236 11.0778 18 11.1406 18H21.25C22.2165 18 23 17.2165 23 16.25V3.75C23 2.7835 22.2165 2 21.25 2H2.75ZM2.5 3.75C2.5 3.61193 2.61193 3.5 2.75 3.5H21.25C21.3881 3.5 21.5 3.61193 21.5 3.75V16.25C21.5 16.3881 21.3881 16.5 21.25 16.5H11.1406C10.7011 16.5 10.2776 16.6654 9.95446 16.9633L6.5 20.1478V17.5C6.5 16.9477 6.05228 16.5 5.5 16.5H2.75C2.61193 16.5 2.5 16.3881 2.5 16.25V3.75Z" fill="black"/>
</svg>

<svg xmlns="http://www.w3.org/2000/svg" width="24" height="24"><path d="M10.143 10.795l2.135 2.344a.81.81 0 01.231.549.815.815 0 01-.2.561.731.731 0 01-.518.25.725.725 0 01-.534-.206l-3.52-3.711a.827.827 0 010-1.154l3.52-3.71a.712.712 0 01.823-.148.75.75 0 01.239.18.83.83 0 01.132.87.789.789 0 01-.173.252l-2.135 2.344h5.61a.73.73 0 01.528.23.818.818 0 010 1.117.728.728 0 01-.528.232h-5.61z"/><path fill-rule="evenodd" d="M2.75 2A1.75 1.75 0 001 3.75v12.5c0 .966.784 1.75 1.75 1.75H5v2.718c0 1.09 1.296 1.658 2.097.92l3.874-3.572a.25.25 0 01.17-.066H21.25A1.75 1.75 0 0023 16.25V3.75A1.75 1.75 0 0021.25 2H2.75zM2.5 3.75a.25.25 0 01.25-.25h18.5a.25.25 0 01.25.25v12.5a.25.25 0 01-.25.25H11.14c-.439 0-.862.165-1.186.463L6.5 20.148V17.5a1 1 0 00-1-1H2.75a.25.25 0 01-.25-.25V3.75z"/></svg>
